X:1
T:Title
%%score { ( 1 4 ) | ( 2 3 ) }
L:1/8
Q:1/4=100
M:6/4
K:Ab
V:1 treble nm="Grand Piano"
V:4 treble 
V:2 bass 
V:3 bass 
V:1
 [CE]2 [CF]2 [CA]2 [DB]4 [CA]2 | [Ec]2 A2 [A,DF]2 [A,CE]6 | %2
w: John~B.~Herbert * * * *||
 [G,DE]2 [B,DG]2 [A,DF]2 D2- [DG]2 [G,DF]2 | F6 z6 | [CE]2 [CF]2 [CA]2 [DB]4 [CA]2 | %5
w: |||
 [Ec]2 A2 [A,DF]2 [CE]4 [CEF]2 | E2- [EB]2 [B,EG]2 =D2- [DB]2 D2 | E6 d6 | e2 e3 c e2 F2 E2 | %9
w: ||||
 c2 c3 A c2[K:bass] F,2 E,2 | A2 A2 A2 .[DFB]4 [A,F]2 | .[CEA]6[K:bass] [A,CE]2 F,2 E,2 | %12
w: |||
 e2 e3 c e2 F2 E2 | c2 c3 A c2[K:bass] C,2 D,2 | E2 A2 [Fd]2 [Ec]2 B2 [CA]2 | .[DGB]6 [CA]6 |] %16
w: ||||
V:2
 [A,,A,]2 [A,,A,]2 [A,,A,]2 [A,,E,]4 [A,,E,]2 | .[A,,A,]6 z6 | z6 .E,6 | z6 .E6 | %4
 [A,,A,]2 [A,,A,]2 [A,,A,]2 [A,,E,]4 [A,,E,]2 | .[A,,A,]6 z6 | z2 G,2 B,,2 z2 F,2 [B,,A,B,]2 | %7
 [G,B,]6[K:treble] [B,G]6 | [A,CA]2 [A,CA]3 [A,E] .[A,CA]6 | [A,EA]2 [A,EA]3 [A,CE] .[A,EA]6 | %10
 [CE]2 [CE]2 [CE]2[K:bass] z2 A2 D,2 | z2[K:treble] F2 E2[K:bass] .A,,6 | %12
 [A,CA]2 [A,CA]3 [A,E] .[A,CA]6 | [A,EA]2 [A,EA]3 [A,CE] .[A,EA]6 | %14
 [E,C]2 [E,CE]2 [E,B,]2 z2 D2 E,2 | z2[K:treble] F2 E2[K:bass] A,,6 |] %16
V:3
 x12 | z2 C2 A,,2 A,,6 | B,,2 B,,2 B,,2 z2 B,2 E,2 | A,,12 | x12 | z2 C2 A,,2 A,,4 A,,2 | %6
 .B,,6 .B,,6 | E,12[K:treble] | x12 | x12 | z6[K:bass] .D,6 | A,,6[K:treble][K:bass] z6 | x12 | %13
 x12 | z6 .E,6 | E,6[K:treble][K:bass] z6 |] %16
V:4
 x12 | x12 | z6 .[G,E]6 | [A,C]12 | x12 | x12 | .[B,G]6 .[B,F]6 | x12 | x12 | x8[K:bass] x4 | x12 | %11
 x6[K:bass] x6 | x12 | x8[K:bass] x4 | z6 .G6 | x12 |] %16

